app/assets/images/revised/bike_photo_placeholder.svg

<svg viewBox="0 0 75.45 75.45" xmlns="http://www.w3.org/2000/svg"><g fill="#fff"><path d="m14 61.71a14 14 0 1 1 14-14 14 14 0 0 1 -14 14zm0-25a11 11 0 1 0 11 11 11 11 0 0 0 -11-11z"/><path d="m61.45 61.71a14 14 0 1 1 14-14 14 14 0 0 1 -14 14zm0-25a11 11 0 1 0 11 11 11 11 0 0 0 -11-11z"/><path d="m35.22 49.22h-21.22a1.5 1.5 0 0 1 -1.13-2.48l13.35-15.4-3.59-8a1.5 1.5 0 0 1 2.74-1.23l3.44 7.65 23.35-7.15a1.5 1.5 0 0 1 1.65 2.32l-17.36 23.65a1.49 1.49 0 0 1 -.84.53h-.33zm-17.95-3h15.63l-5.34-11.87zm12.73-13.69 5.5 12.23 13.19-17.94z"/><path d="m30.23 24.23h-10a1.5 1.5 0 0 1 0-3h10a1.5 1.5 0 0 1 0 3z"/><path d="m61.45 49.22a1.5 1.5 0 0 1 -1.4-1l-11.24-30a1.5 1.5 0 0 1 .88-1.93h.05l7.49-2.5a1.5 1.5 0 1 1 .95 2.85l-6 2 10.69 28.5a1.5 1.5 0 0 1 -1.42 2.08z"/></g></svg>

<svg id="Layer_17" data-name="Layer 17" xmlns="http://www.w3.org/2000/svg" viewBox="0 0 75.45 75.45">
  <defs>
    <style>.cls-1 { fill: #fff; }</style>
  </defs>
  <title>bike_photo_placeholder</title>
  <path class="cls-1" d="M14,61.71a14,14,0,1,1,14-14A14,14,0,0,1,14,61.71Zm0-25a11,11,0,1,0,11,11,11,11,0,0,0-11-11h0Z"/>
  <path class="cls-1" d="M61.45,61.71a14,14,0,1,1,14-14,14,14,0,0,1-14,14h0Zm0-25a11,11,0,1,0,11,11,11,11,0,0,0-11-11h0Z"/>
  <path class="cls-1" d="M35.22,49.22H14a1.5,1.5,0,0,1-1.13-2.48l13.35-15.4-3.59-8a1.5,1.5,0,0,1,2.74-1.23l3.44,7.65,23.35-7.15a1.5,1.5,0,0,1,1.65,2.32L36.45,48.58h0a1.49,1.49,0,0,1-.84.53H35.28Zm-17.95-3H32.9L27.56,34.35ZM30,32.53l5.5,12.23L48.69,26.82Z"/>
  <path class="cls-1" d="M30.23,24.23h-10a1.5,1.5,0,0,1,0-3h10A1.5,1.5,0,0,1,30.23,24.23Z"/>
  <path class="cls-1" d="M61.45,49.22a1.5,1.5,0,0,1-1.4-1l-11.24-30a1.5,1.5,0,0,1,.88-1.93l0.05,0,7.49-2.5a1.5,1.5,0,1,1,.95,2.85l-6,2L62.87,47.14A1.5,1.5,0,0,1,61.45,49.22Z"/>
</svg>
